docroot/sites/all/themes/custom/virginsport/src/img/festival-alert-icon.svg

<?xml version="1.0" encoding="UTF-8"?>
<svg width="26px" height="26px" viewBox="0 0 26 26" version="1.1" xmlns="http://www.w3.org/2000/svg" xmlns:xlink="http://www.w3.org/1999/xlink">
    <!-- Generator: Sketch 46.2 (44496) - http://www.bohemiancoding.com/sketch -->
    <title>ic_info</title>
    <desc>Created with Sketch.</desc>
    <defs></defs>
    <g id="Final_Design" stroke="none" stroke-width="1" fill="none" fill-rule="evenodd">
        <g id="festival_eventpage_alert" transform="translate(-37.000000, -17.000000)" fill="#FFFFFF">
            <g id="ic_info" transform="translate(37.000000, 17.000000)">
                <g id="Group-3">
                    <path d="M18.8943329,22.1393939 C14.4822117,25.0545455 8.53372684,24.4636364 4.75190865,20.6818182 C0.339787441,16.3090909 0.339787441,9.17878788 4.75190865,4.80606061 C6.87918138,2.67878788 9.71554502,1.4969697 12.7094844,1.4969697 C15.7034238,1.4969697 18.5397874,2.67878788 20.6670602,4.80606061 C24.4094844,8.54848485 25.0397874,14.4969697 22.1246359,18.9484848 L21.9276662,19.2636364 L23.5034238,23.5181818 L19.2488784,21.9424242 L18.8943329,22.1393939 Z M21.6913026,3.74242424 C19.2882723,1.33939394 16.0973632,0 12.7094844,0 C9.32160562,0 6.13069653,1.33939394 3.72766623,3.74242424 C-1.23597013,8.70606061 -1.23597013,16.7818182 3.68827229,21.7454545 C7.86402987,25.9212121 14.3640299,26.669697 19.3670602,23.5969697 L25.9064541,26 L23.5034238,19.4606061 C26.5761511,14.4575758 25.8276662,7.91818182 21.6913026,3.74242424 L21.6913026,3.74242424 Z" id="Fill-1"></path>
                </g>
                <path d="M12.5363636,17 C13.3849091,17 14.0727273,17.6878182 14.0727273,18.5363636 C14.0727273,19.3849091 13.3849091,20.0727273 12.5363636,20.0727273 C11.6878182,20.0727273 11,19.3849091 11,18.5363636 C11,17.6878182 11.6878182,17 12.5363636,17" id="Fill-4"></path>
                <path d="M12.5363636,6 C11.669697,6 11,6.70909091 11,7.53636364 L11,12.5787879 C11,13.4454545 11.7090909,14.1151515 12.5363636,14.1151515 C13.4030303,14.1151515 14.0727273,13.4060606 14.0727273,12.5787879 L14.0727273,7.53636364 C14.0727273,6.70909091 13.3636364,6 12.5363636,6" id="Fill-6"></path>
            </g>
        </g>
    </g>
</svg>

<svg width="26" height="26" viewBox="0 0 26 26" xmlns="http://www.w3.org/2000/svg"><title>ic_info</title><g fill="#FFF" fill-rule="evenodd"><path d="M18.894 22.14c-4.412 2.915-10.36 2.324-14.142-1.458C.34 16.31.34 9.18 4.752 4.806c2.127-2.127 4.964-3.31 7.957-3.31 2.993 0 5.83 1.183 7.957 3.31 3.742 3.742 4.373 9.69 1.458 14.142l-.197.316 1.575 4.254-4.254-1.576-.356.197zM21.69 3.74C19.29 1.34 16.098 0 12.71 0 9.32 0 6.13 1.34 3.727 3.742c-4.964 4.964-4.964 13.04-.04 18.003 4.176 4.176 10.676 4.925 15.68 1.852L25.905 26l-2.403-6.54C26.576 14.46 25.828 7.92 21.69 3.743z"/><path d="M12.536 17c.85 0 1.537.688 1.537 1.536 0 .85-.688 1.537-1.537 1.537-.848 0-1.536-.688-1.536-1.537 0-.848.688-1.536 1.536-1.536M12.536 6C11.67 6 11 6.71 11 7.536v5.043c0 .865.71 1.535 1.536 1.535.867 0 1.537-.71 1.537-1.536V7.535c0-.827-.71-1.536-1.537-1.536"/></g></svg>
